X:1
T:The Black Joak - Ascot-under-wychwood
R: Rag Morris
r:16
M:6/8
K:G
D2G GFG | AcB AGF | GAB dcB | AcB AGF | G3 E3 | DEF G3 ::
Bcd d2d | ede d2d | Bcd d2d | ede d2c |
B2d BAG | AcB AGF | GAB dcB | AcB AGF | G3 E3 | DEF G3 :|
Z: Benjamin 
W: A.(AB)3A 
